X:9068
T:La Sabotée
R:Bourrée à 3 temps
A:Corrèze
O:France
M:3/4
L:1/8
Q:1/4=180
K:C
EF|G2 GA GF|E2C2 EF|G2G2A2|G3 z EF|G2 GA GF|E2C2E2|G2F2D2|C3 z
E2|
E2 DE FE|D2 C2 D2|D2 C2 D2|E2 C2 E2|E2 DE FE|D2 C2 D2|G2 F2 D2|C3
z||


